src/assets/img/ticket-icon.svg

<svg width="48" height="48" viewBox="0 0 48 48" fill="none" xmlns="http://www.w3.org/2000/svg">
<path fill-rule="evenodd" clip-rule="evenodd" d="M13.6159 3.63425L14.4954 3.49538C20.7897 2.50154 27.201 2.50154 33.4954 3.49538L34.3749 3.63425C39.5142 4.44572 43.5451 8.47659 44.3565 13.6159L44.4954 14.4954C45.4892 20.7897 45.4892 27.201 44.4954 33.4954L44.3565 34.3749C43.5451 39.5142 39.5142 43.5451 34.3749 44.3565L33.4954 44.4954C27.201 45.4892 20.7897 45.4892 14.4954 44.4954L13.6159 44.3565C8.47659 43.5451 4.44572 39.5142 3.63425 34.3749L3.49538 33.4954C2.50154 27.201 2.50154 20.7897 3.49538 14.4954L3.63425 13.6159C4.44572 8.47659 8.47659 4.44572 13.6159 3.63425Z" fill="#6F1EC3"/>
<path fill-rule="evenodd" clip-rule="evenodd" d="M28.1489 14.0506L30.0522 15.954C29.7971 16.2091 29.6393 16.5615 29.6393 16.9509C29.6393 17.7295 30.2706 18.3607 31.0492 18.3607C31.4385 18.3607 31.7909 18.2029 32.0461 17.9478L33.9495 19.8512C34.6835 20.5852 34.6835 21.7755 33.9495 22.5095L22.5095 33.9495C21.7755 34.6835 20.5852 34.6835 19.8512 33.9495L17.9478 32.0461C18.2029 31.7909 18.3607 31.4385 18.3607 31.0492C18.3607 30.2706 17.7295 29.6393 16.9509 29.6393C16.5617 29.6393 16.2091 29.7973 15.954 30.0522L14.0506 28.1489C13.3165 27.4148 13.3165 26.2245 14.0506 25.4905L25.4905 14.0506C26.2245 13.3165 27.4148 13.3165 28.1489 14.0506ZM27.9811 23.5699L27.3134 24.2314C27.129 24.414 27.1276 24.7116 27.3102 24.8959L28.3544 25.9499C28.537 26.1343 28.8346 26.1357 29.0189 25.9531L29.6867 25.2916C29.8711 25.1089 29.8725 24.8114 29.6898 24.627L28.6457 23.573C28.463 23.3886 28.1655 23.3872 27.9811 23.5699ZM25.3352 20.899L24.6675 21.5605C24.4831 21.7431 24.4817 22.0407 24.6644 22.2251L25.855 23.427C26.0377 23.6113 26.3352 23.6127 26.5196 23.4301L27.1873 22.7686C27.3717 22.586 27.3731 22.2884 27.1905 22.104L25.9998 20.9021C25.8172 20.7177 25.5196 20.7163 25.3352 20.899ZM22.6894 18.2281L22.0217 18.8896C21.8373 19.0722 21.8359 19.3698 22.0185 19.5542L23.2092 20.7561C23.3918 20.9405 23.6894 20.9419 23.8738 20.7592L24.5415 20.0977C24.7259 19.9151 24.7273 19.6175 24.5446 19.4331L23.354 18.2312C23.1713 18.0469 22.8738 18.0455 22.6894 18.2281Z" fill="white"/>
</svg>

<svg xmlns="http://www.w3.org/2000/svg" width="48" height="48" fill="none"><path fill="#6F1EC3" fill-rule="evenodd" d="m13.616 3.634.88-.139a60.912 60.912 0 0 1 19 0l.879.14a12 12 0 0 1 9.981 9.98l.14.88a60.915 60.915 0 0 1 0 19l-.14.88a12 12 0 0 1-9.981 9.981l-.88.14a60.915 60.915 0 0 1-19 0l-.88-.14a12 12 0 0 1-9.98-9.981l-.14-.88a60.912 60.912 0 0 1 0-19l.14-.88a12 12 0 0 1 9.98-9.98Z" clip-rule="evenodd"/><path fill="#fff" fill-rule="evenodd" d="m28.149 14.05 1.903 1.904a1.41 1.41 0 0 0 1.994 1.994l1.904 1.903a1.88 1.88 0 0 1 0 2.659L22.51 33.95a1.88 1.88 0 0 1-2.659 0l-1.903-1.904a1.41 1.41 0 0 0-1.994-1.994l-1.903-1.903a1.88 1.88 0 0 1 0-2.659l11.44-11.44a1.88 1.88 0 0 1 2.658 0Zm-.168 9.52-.668.661a.47.47 0 0 0-.003.665l1.044 1.054a.47.47 0 0 0 .665.003l.668-.661a.47.47 0 0 0 .003-.665l-1.044-1.054a.47.47 0 0 0-.665-.003Zm-2.646-2.671-.668.662a.47.47 0 0 0-.003.664l1.191 1.202a.47.47 0 0 0 .665.003l.667-.661a.47.47 0 0 0 .003-.665L26 20.902a.47.47 0 0 0-.665-.003Zm-2.646-2.67-.667.66a.47.47 0 0 0-.003.665l1.19 1.202a.47.47 0 0 0 .665.003l.668-.661a.47.47 0 0 0 .003-.665l-1.191-1.202a.47.47 0 0 0-.665-.003Z" clip-rule="evenodd"/></svg>
